icon/pk/phone-incoming-one.svg

<svg viewBox="0 0 48 48" fill="none" xmlns="http://www.w3.org/2000/svg" height="1em" width="1em">
  <path d="M13.3755 9.79423C14.1021 9.79423 14.7715 10.1883 15.1241 10.8235L17.5706 15.2303C17.8909 15.8073 17.9059 16.5052 17.6108 17.0955L15.254 21.8092C15.254 21.8092 15.937 25.3206 18.7954 28.179C21.6538 31.0374 25.1535 31.7086 25.1535 31.7086L29.8664 29.3522C30.4571 29.0568 31.1555 29.0721 31.7327 29.393L36.152 31.85C36.7866 32.2029 37.1802 32.8719 37.1802 33.598L37.1802 38.6715C37.1802 41.2552 34.7803 43.1213 32.3322 42.2952C27.3043 40.5987 19.4996 37.3685 14.5528 32.4216C9.60592 27.4748 6.3757 19.6701 4.67916 14.6422C3.85314 12.1941 5.71923 9.79423 8.30287 9.79423L13.3755 9.79423Z" fill="#2F88FF" stroke="black" stroke-width="4" stroke-linejoin="round"/>
  <path d="M34.2402 6L26.2402 14L34.2402 22" stroke="black" stroke-width="4" stroke-linecap="round" stroke-linejoin="round"/>
  <path d="M42.2402 14.0083H26.2402" stroke="black" stroke-width="4" stroke-linecap="round" stroke-linejoin="round"/>
</svg>

<svg width="48" height="48" fill="none" xmlns="http://www.w3.org/2000/svg"><path d="M13.376 9.794a2 2 0 0 1 1.748 1.03l2.447 4.406a2 2 0 0 1 .04 1.866l-2.357 4.713s.683 3.512 3.541 6.37c2.859 2.858 6.358 3.53 6.358 3.53l4.713-2.357a2 2 0 0 1 1.867.041l4.419 2.457a2 2 0 0 1 1.028 1.748v5.074c0 2.583-2.4 4.45-4.848 3.623-5.028-1.696-12.832-4.927-17.78-9.873-4.946-4.947-8.176-12.752-9.873-17.78-.826-2.448 1.04-4.848 3.624-4.848h5.072Z" fill="#2F88FF" stroke="#000" stroke-width="4" stroke-linejoin="round"/><path d="m34.24 6-8 8 8 8M42.24 14.008h-16" stroke="#000" stroke-width="4" stroke-linecap="round" stroke-linejoin="round"/></svg>
